assets/img/braze_icons/refresh-cw-04.svg

<svg fill="none" height="24" viewBox="0 0 24 24" width="24" xmlns="http://www.w3.org/2000/svg"><g fill="#801ed7"><path d="m11.7071.892869c-.3905-.390525-1.0237-.390525-1.4142 0-.39053.390521-.39053 1.023691 0 1.414211l.2969.29687c-4.57795.68126-8.0898 4.62854-8.0898 9.39605 0 3.1587 1.54258 5.9572 3.91115 7.6828.44637.3253 1.07187.227 1.39709-.2193.32521-.4464.22699-1.0719-.21939-1.3971-1.8741-1.3654-3.08885-3.574-3.08885-6.0664 0-3.6442 2.59907-6.68135 6.0447-7.3589l-.2518.25177c-.39053.39052-.39053 1.02369 0 1.41421.3905.39053 1.0237.39053 1.4142 0l2-2c.3905-.39052.3905-1.02369 0-1.41421z"/><path d="m17.5889 4.3172c-.4464-.32522-1.0719-.227-1.3971.21938-.3253.44638-.227 1.07188.2193 1.39709 1.8742 1.36541 3.0889 3.57398 3.0889 6.06633 0 3.6443-2.5991 6.6814-6.0447 7.3589l.2518-.2518c.3905-.3905.3905-1.0237 0-1.4142s-1.0237-.3905-1.4142 0l-2 2c-.39053.3905-.39053 1.0237 0 1.4142l2 2c.3905.3906 1.0237.3906 1.4142 0 .3905-.3905.3905-1.0237 0-1.4142l-.2968-.2968c4.5779-.6813 8.0897-4.6286 8.0897-9.3961 0-3.15865-1.5426-5.95715-3.9111-7.6828z"/></g></svg>

<svg width="24" height="24" viewBox="0 0 24 24" fill="none" xmlns="http://www.w3.org/2000/svg">
<path d="M11.7071 0.892869C11.3166 0.502344 10.6834 0.502344 10.2929 0.892869C9.90237 1.28339 9.90237 1.91656 10.2929 2.30708L10.5898 2.60395C6.01185 3.28521 2.5 7.23249 2.5 12C2.5 15.1587 4.04258 17.9572 6.41115 19.6828C6.85752 20.0081 7.48302 19.9098 7.80824 19.4635C8.13345 19.0171 8.03523 18.3916 7.58885 18.0664C5.71475 16.701 4.5 14.4924 4.5 12C4.5 8.3558 7.09907 5.31865 10.5447 4.6411L10.2929 4.89287C9.90237 5.28339 9.90237 5.91656 10.2929 6.30708C10.6834 6.69761 11.3166 6.69761 11.7071 6.30708L13.7071 4.30708C14.0976 3.91656 14.0976 3.28339 13.7071 2.89287L11.7071 0.892869Z" fill="#801ED7"/>
<path d="M17.5889 4.3172C17.1425 3.99198 16.517 4.0902 16.1918 4.53658C15.8665 4.98296 15.9648 5.60846 16.4111 5.93367C18.2853 7.29908 19.5 9.50765 19.5 12C19.5 15.6443 16.9009 18.6814 13.4553 19.3589L13.7071 19.1071C14.0976 18.7166 14.0976 18.0834 13.7071 17.6929C13.3166 17.3024 12.6834 17.3024 12.2929 17.6929L10.2929 19.6929C9.90237 20.0834 9.90237 20.7166 10.2929 21.1071L12.2929 23.1071C12.6834 23.4977 13.3166 23.4977 13.7071 23.1071C14.0976 22.7166 14.0976 22.0834 13.7071 21.6929L13.4103 21.3961C17.9882 20.7148 21.5 16.7675 21.5 12C21.5 8.84135 19.9574 6.04285 17.5889 4.3172Z" fill="#801ED7"/>
</svg>
